utils/icons-generator/ic_media_videogame.svg

<?xml version="1.0" encoding="UTF-8"?>
<svg xmlns="http://www.w3.org/2000/svg" xmlns:xlink="http://www.w3.org/1999/xlink" width="1000pt" height="1000pt" viewBox="0 0 1000 1000" version="1.1">
<g id="surface1">
<path style=" stroke:none;fill-rule:nonzero;fill:rgb(0%,0%,0%);fill-opacity:1;" d="M 875 250 L 125 250 C 79.167969 250 41.667969 287.5 41.667969 333.332031 L 41.667969 666.667969 C 41.667969 712.5 79.167969 750 125 750 L 875 750 C 920.832031 750 958.332031 712.5 958.332031 666.667969 L 958.332031 333.332031 C 958.332031 287.5 920.832031 250 875 250 Z M 458.332031 541.667969 L 333.332031 541.667969 L 333.332031 666.667969 L 250 666.667969 L 250 541.667969 L 125 541.667969 L 125 458.332031 L 250 458.332031 L 250 333.332031 L 333.332031 333.332031 L 333.332031 458.332031 L 458.332031 458.332031 Z M 645.832031 625 C 611.25 625 583.332031 597.082031 583.332031 562.5 C 583.332031 527.917969 611.25 500 645.832031 500 C 680.417969 500 708.332031 527.917969 708.332031 562.5 C 708.332031 597.082031 680.417969 625 645.832031 625 Z M 812.5 500 C 777.917969 500 750 472.082031 750 437.5 C 750 402.917969 777.917969 375 812.5 375 C 847.082031 375 875 402.917969 875 437.5 C 875 472.082031 847.082031 500 812.5 500 Z M 812.5 500 "/>
</g>
</svg>

<?xml version="1.0" encoding="UTF-8" standalone="no"?>
<svg
   xmlns:dc="http://purl.org/dc/elements/1.1/"
   xmlns:cc="http://creativecommons.org/ns#"
   xmlns:rdf="http://www.w3.org/1999/02/22-rdf-syntax-ns#"
   xmlns:svg="http://www.w3.org/2000/svg"
   xmlns="http://www.w3.org/2000/svg"
   xmlns:sodipodi="http://sodipodi.sourceforge.net/DTD/sodipodi-0.dtd"
   xmlns:inkscape="http://www.inkscape.org/namespaces/inkscape"
   width="1000pt"
   height="1000pt"
   viewBox="0 0 1000 1000"
   version="1.1"
   id="svg964"
   sodipodi:docname="ic_media_videogame.svg"
   inkscape:version="0.92.4 (5da689c313, 2019-01-14)">
  <metadata
     id="metadata970">
    <rdf:RDF>
      <cc:Work
         rdf:about="">
        <dc:format>image/svg+xml</dc:format>
        <dc:type
           rdf:resource="http://purl.org/dc/dcmitype/StillImage" />
      </cc:Work>
    </rdf:RDF>
  </metadata>
  <defs
     id="defs968" />
  <sodipodi:namedview
     pagecolor="#ffffff"
     bordercolor="#666666"
     borderopacity="1"
     objecttolerance="10"
     gridtolerance="10"
     guidetolerance="10"
     inkscape:pageopacity="0"
     inkscape:pageshadow="2"
     inkscape:window-width="2560"
     inkscape:window-height="1346"
     id="namedview966"
     showgrid="false"
     inkscape:zoom="0.177"
     inkscape:cx="666.66667"
     inkscape:cy="666.66667"
     inkscape:window-x="-11"
     inkscape:window-y="-11"
     inkscape:window-maximized="1"
     inkscape:current-layer="svg964" />
  <g
     id="surface1"
     transform="matrix(1.0881849,0,0,1.0881849,-44.092465,-44.092465)">
    <path
       style="fill:#000000;fill-opacity:1;fill-rule:nonzero;stroke:none"
       d="M 875,250 H 125 c -45.832031,0 -83.332031,37.5 -83.332031,83.33203 V 666.66797 C 41.667969,712.5 79.167969,750 125,750 h 750 c 45.83203,0 83.33203,-37.5 83.33203,-83.33203 V 333.33203 C 958.33203,287.5 920.83203,250 875,250 Z M 458.33203,541.66797 h -125 v 125 H 250 v -125 H 125 v -83.33594 h 125 v -125 h 83.33203 v 125 h 125 z M 645.83203,625 c -34.58203,0 -62.5,-27.91797 -62.5,-62.5 0,-34.58203 27.91797,-62.5 62.5,-62.5 34.58594,0 62.5,27.91797 62.5,62.5 0,34.58203 -27.91406,62.5 -62.5,62.5 z M 812.5,500 c -34.58203,0 -62.5,-27.91797 -62.5,-62.5 0,-34.58203 27.91797,-62.5 62.5,-62.5 34.58203,0 62.5,27.91797 62.5,62.5 0,34.58203 -27.91797,62.5 -62.5,62.5 z m 0,0"
       id="path961"
       inkscape:connector-curvature="0" />
  </g>
</svg>
